24x24/apps/appimagekit-zettlr.svg

<svg xmlns="http://www.w3.org/2000/svg" width="24" height="24" version="1">
 <rect style="opacity:0.2" width="20" height="20" x="2" y="2.5" rx="1" ry="1"/>
 <rect style="fill:#32a980" width="20" height="20" x="2" y="2" rx="1" ry="1"/>
 <path style="opacity:0.2;fill:#f4f4f7" d="M 3,2 C 2.446,2 2,2.446 2,3 v 0.5 c 0,-0.554 0.446,-1 1,-1 h 18 c 0.554,0 1,0.446 1,1 V 3 C 22,2.446 21.554,2 21,2 Z"/>
 <path style="opacity:0.2" d="m 12.747096,19.5 c 0.2221,-0.476709 0.732508,-0.880882 0.884451,-1.412473 0.186721,-0.49354 0.126699,-1.196141 -0.37095,-1.484759 -0.176862,-0.150992 -0.446025,-0.05134 -0.663805,-0.09123 -1.101618,-0.03855 -2.821154,0.02113 -3.713299,-0.743309 C 7.9794815,14.967496 7.897227,13.678368 8.077776,12.561334 8.4605905,10.641126 9.8133775,9.599758 11.262808,8.3616625 11.467062,8.177627 12.120809,7.4752385 11.490133,7.531146 10.532639,7.488291 8,7.5003375 8,7.5003375 V 5.5 h 7 v 2.0003375 c -1.636795,1.040628 -3.130241,1.884573 -4.024495,3.6480575 -0.426489,0.834968 -0.614454,1.732112 -0.23001,2.614941 0.254104,0.518477 1.490833,0.736868 2.039473,0.718207 0.658285,0.07391 1.360106,-0.05275 1.984165,0.205817 0.863202,0.373757 1.312535,1.361972 1.218074,2.270304 -0.03724,0.844732 -0.472462,1.906689 -1.008065,2.542336 z"/>
 <path style="fill:#f4f4f7" d="m 12.747096,19 c 0.2221,-0.476709 0.732508,-0.880882 0.884451,-1.412473 0.186721,-0.49354 0.126699,-1.196141 -0.37095,-1.484759 -0.176862,-0.150992 -0.446025,-0.05134 -0.663805,-0.09123 -1.101618,-0.03855 -2.821154,0.02113 -3.713299,-0.743309 C 7.9794815,14.467496 7.897227,13.178368 8.077776,12.061334 8.4605905,10.141126 9.8133775,9.099758 11.262808,7.8616625 11.467062,7.677627 12.120809,6.9752385 11.490133,7.031146 10.532639,6.988291 8,7.0003375 8,7.0003375 V 5 h 7 v 2.0003375 c -1.636795,1.040628 -3.130241,1.884573 -4.024495,3.6480575 -0.426489,0.834968 -0.614454,1.732112 -0.23001,2.614941 0.254104,0.518477 1.490833,0.736868 2.039473,0.718207 0.658285,0.07391 1.360106,-0.05275 1.984165,0.205817 0.863202,0.373757 1.312535,1.361972 1.218074,2.270304 C 15.949963,17.302396 15.514745,18.364353 14.979142,19 Z"/>
</svg>

<svg xmlns="http://www.w3.org/2000/svg" width="24" height="24" version="1"><rect style="opacity:.2" width="20" height="20" x="2" y="2.5" rx="1" ry="1"/><rect style="fill:#32a980" width="20" height="20" x="2" y="2" rx="1" ry="1"/><path style="opacity:.2;fill:#f4f4f7" d="M3 2c-.554 0-1 .446-1 1v.5c0-.554.446-1 1-1h18c.554 0 1 .446 1 1V3c0-.554-.446-1-1-1z"/><path style="opacity:.2" d="M12.747 19.5c.222-.477.733-.88.885-1.412.186-.494.126-1.197-.371-1.485-.177-.151-.446-.052-.664-.091-1.102-.039-2.821.02-3.714-.744-.904-.8-.986-2.09-.805-3.207.383-1.92 1.735-2.961 3.185-4.2.204-.183.858-.886.227-.83-.957-.043-3.49-.03-3.49-.03V5.5h7v2c-1.637 1.041-3.13 1.885-4.024 3.648-.427.835-.615 1.733-.23 2.615.254.519 1.49.737 2.039.719.658.073 1.36-.053 1.984.205.863.374 1.313 1.362 1.218 2.27-.037.845-.472 1.907-1.008 2.543z"/><path style="fill:#f4f4f7" d="M12.747 19c.222-.477.733-.88.885-1.412.186-.494.126-1.197-.371-1.485-.177-.151-.446-.052-.664-.091-1.102-.039-2.821.02-3.714-.744-.904-.8-.986-2.09-.805-3.207.383-1.92 1.735-2.961 3.185-4.2.204-.183.858-.886.227-.83-.957-.043-3.49-.03-3.49-.03V5h7v2c-1.637 1.041-3.13 1.885-4.024 3.648-.427.835-.615 1.733-.23 2.615.254.519 1.49.737 2.039.719.658.073 1.36-.053 1.984.205.863.374 1.313 1.362 1.218 2.27-.037.845-.472 1.907-1.008 2.543z"/></svg>
